z-union/img/icons/tab-icons/tab-icon-8.svg

<svg width="54" height="61" viewBox="0 0 54 61" fill="none" xmlns="http://www.w3.org/2000/svg">
<path d="M28.0402 8.0752H25.9429V53.2676H28.0402V8.0752Z" fill="#232322"/>
<path d="M49.5878 29.6426H4.39539V31.74H49.5878V29.6426Z" fill="#232322"/>
<path d="M26.9914 58.3137C26.6946 58.3137 26.3978 58.1752 26.2 57.9377L3.50484 31.4634C3.16847 31.0676 3.16847 30.4938 3.50484 30.0981L26.2 3.62374C26.5957 3.14886 27.3872 3.14886 27.8027 3.62374L50.4978 30.0981C50.8342 30.4938 48.816 33.3632 48.4796 33.7589L27.7829 57.9377C27.585 58.1752 27.308 58.3137 26.9914 58.3137ZM5.68136 30.7708L26.9914 55.6425L48.3015 30.7708L26.9914 5.89918L5.68136 30.7708Z" fill="#C63432"/>
<path d="M40.0506 43.6312L38.4479 42.266L48.2818 30.77L38.3688 19.1553L39.9715 17.79L50.4583 30.0775C50.7947 30.4732 50.7947 31.047 50.4583 31.4427L40.0506 43.6312Z" fill="#232322"/>
<path d="M26.9914 7.54173C28.7836 7.54173 30.2364 6.0889 30.2364 4.29675C30.2364 2.50459 28.7836 1.05176 26.9914 1.05176C25.1993 1.05176 23.7465 2.50459 23.7465 4.29675C23.7465 6.0889 25.1993 7.54173 26.9914 7.54173Z" fill="#151514"/>
<path d="M26.9914 8.59005C26.9321 8.59005 26.8925 8.59005 26.8332 8.59005C25.6855 8.55048 24.6171 8.05582 23.8454 7.22478C23.0539 6.37396 22.6582 5.2857 22.6978 4.13808C22.7373 2.99047 23.232 1.922 24.063 1.15032C24.9139 0.358863 26.0219 -0.0368712 27.1497 0.00270187C29.5241 0.0818479 31.3841 2.08029 31.2851 4.45467C31.2455 5.60229 30.7509 6.67076 29.9198 7.44244C29.1284 8.19432 28.0797 8.59005 26.9914 8.59005ZM26.9914 2.10008C25.824 2.10008 24.8347 3.03004 24.7951 4.21723C24.7754 4.81083 24.9732 5.36485 25.3887 5.80015C25.7845 6.23546 26.3385 6.4729 26.9123 6.49268C27.4861 6.51247 28.0599 6.3146 28.4952 5.89908C28.9305 5.50335 29.168 4.94934 29.1877 4.37553C29.2273 3.16855 28.2776 2.13965 27.0706 2.10008C27.0508 2.10008 27.0112 2.10008 26.9914 2.10008Z" fill="#C63432"/>
<path d="M26.9914 59.8386C28.7836 59.8386 30.2364 58.3858 30.2364 56.5936C30.2364 54.8015 28.7836 53.3486 26.9914 53.3486C25.1993 53.3486 23.7465 54.8015 23.7465 56.5936C23.7465 58.3858 25.1993 59.8386 26.9914 59.8386Z" fill="#151514"/>
<path d="M26.9914 60.9062C26.9321 60.9062 26.8925 60.9062 26.8332 60.9062C25.6855 60.8666 24.6171 60.372 23.8454 59.5409C23.0539 58.6901 22.6582 57.6019 22.6978 56.4543C22.7769 54.0799 24.7951 52.2397 27.1497 52.3189C28.2974 52.3584 29.3658 52.8531 30.1375 53.6841C30.929 54.535 31.3247 55.6232 31.2851 56.7708C31.2455 57.9185 30.7509 58.9869 29.9198 59.7586C29.1284 60.4907 28.0797 60.9062 26.9914 60.9062ZM24.7951 56.5136C24.7556 57.7206 25.7053 58.7495 26.9123 58.7891C27.4861 58.8089 28.0599 58.611 28.4952 58.1955C28.9305 57.7997 29.168 57.2457 29.1877 56.6719C29.2075 56.0783 29.0097 55.5243 28.5942 55.089C28.1984 54.6537 27.6444 54.4162 27.0706 54.3965C25.8438 54.3569 24.8347 55.3066 24.7951 56.5136Z" fill="#C63432"/>
<path d="M49.6866 33.9382C51.4788 33.9382 52.9316 32.4854 52.9316 30.6932C52.9316 28.9011 51.4788 27.4482 49.6866 27.4482C47.8945 27.4482 46.4417 28.9011 46.4417 30.6932C46.4417 32.4854 47.8945 33.9382 49.6866 33.9382Z" fill="#151514"/>
<path d="M49.6866 35.0058C49.6273 35.0058 49.5877 35.0058 49.5283 35.0058C48.3807 34.9662 47.3123 34.4716 46.5406 33.6406C45.7491 32.7897 45.3534 31.7015 45.393 30.5539C45.4721 28.1795 47.4903 26.3393 49.8449 26.4185C50.9925 26.458 52.061 26.9527 52.8327 27.7838C53.6242 28.6346 54.0199 29.7228 53.9803 30.8704C53.9407 32.0181 53.4461 33.0865 52.615 33.8582C51.8038 34.5903 50.7749 35.0058 49.6866 35.0058ZM49.6866 28.4961C48.5192 28.4961 47.5299 29.426 47.4903 30.6132C47.4508 31.8202 48.4005 32.8491 49.6075 32.8887C50.1813 32.9084 50.7551 32.7106 51.1904 32.2951C51.6257 31.8993 51.8631 31.3453 51.8829 30.7715C51.9027 30.1977 51.7049 29.6239 51.2893 29.1886C50.8936 28.7533 50.3396 28.5158 49.7658 28.4961C49.746 28.4961 49.7064 28.4961 49.6866 28.4961Z" fill="#232322"/>
<path d="M26.9914 33.9382C28.7836 33.9382 30.2364 32.4854 30.2364 30.6932C30.2364 28.9011 28.7836 27.4482 26.9914 27.4482C25.1993 27.4482 23.7465 28.9011 23.7465 30.6932C23.7465 32.4854 25.1993 33.9382 26.9914 33.9382Z" fill="#151514"/>
<path d="M26.9914 35.0058C26.9321 35.0058 26.8925 35.0058 26.8332 35.0058C25.6855 34.9662 24.6171 34.4716 23.8454 33.6406C23.0539 32.7897 22.6582 31.7015 22.6978 30.5539C22.7769 28.1795 24.7951 26.3393 27.1497 26.4185C28.2974 26.458 29.3658 26.9527 30.1375 27.7838C30.929 28.6346 31.3247 29.7228 31.2851 30.8704C31.2455 32.0181 30.7509 33.0865 29.9198 33.8582C29.1284 34.5903 28.0797 35.0058 26.9914 35.0058ZM26.9914 28.4961C25.824 28.4961 24.8347 29.426 24.7951 30.6132C24.7556 31.8202 25.7053 32.8491 26.9123 32.8887C27.4861 32.9084 28.0599 32.7106 28.4952 32.2951C28.9305 31.8993 29.168 31.3453 29.1877 30.7715C29.2075 30.1779 29.0097 29.6239 28.5942 29.1886C28.1984 28.7533 27.6444 28.5158 27.0706 28.4961C27.0508 28.4961 27.0112 28.4961 26.9914 28.4961Z" fill="#232322"/>
<path d="M4.2965 33.9382C6.08866 33.9382 7.54149 32.4854 7.54149 30.6932C7.54149 28.9011 6.08866 27.4482 4.2965 27.4482C2.50434 27.4482 1.05151 28.9011 1.05151 30.6932C1.05151 32.4854 2.50434 33.9382 4.2965 33.9382Z" fill="#151514"/>
<path d="M4.29638 35.0058C4.23702 35.0058 4.19744 35.0058 4.13808 35.0058C2.99047 34.9662 1.92199 34.4716 1.15032 33.6406C0.358859 32.7897 -0.0368711 31.7015 0.00270189 30.5539C0.081848 28.1795 2.11986 26.3393 4.45467 26.4185C5.60229 26.458 6.67076 26.9527 7.44243 27.7838C8.23389 28.6346 8.62962 29.7228 8.59005 30.8704C8.55048 32.0181 8.05581 33.0865 7.22478 33.8582C6.43332 34.5903 5.38463 35.0058 4.29638 35.0058ZM4.29638 28.4961C3.12897 28.4961 2.13965 29.426 2.10007 30.6132C2.0605 31.8202 3.01025 32.8491 4.21723 32.8887C4.79104 32.9084 5.36485 32.7106 5.80015 32.2951C6.23545 31.8993 6.47289 31.3453 6.49268 30.7715C6.51247 30.1779 6.3146 29.6239 5.89908 29.1886C5.50335 28.7533 4.94933 28.5158 4.37552 28.4961C4.35574 28.4961 4.33595 28.4961 4.29638 28.4961Z" fill="#C63432"/>
<path d="M14.9414 21.8865C16.7336 21.8865 18.1864 20.4336 18.1864 18.6415C18.1864 16.8493 16.7336 15.3965 14.9414 15.3965C13.1492 15.3965 11.6964 16.8493 11.6964 18.6415C11.6964 20.4336 13.1492 21.8865 14.9414 21.8865Z" fill="#151514"/>
<path d="M14.9414 22.9543C14.8821 22.9543 14.8425 22.9543 14.7831 22.9543C13.6355 22.9147 12.567 22.4201 11.7954 21.589C10.1729 19.8478 10.2718 17.1173 12.013 15.5146C12.8441 14.7231 13.9323 14.3274 15.0997 14.367C16.2473 14.4065 17.3158 14.9012 18.0875 15.7322C18.8789 16.5633 19.2747 17.6713 19.2351 18.8189C19.1955 19.9665 18.7009 21.035 17.8698 21.8067C17.0784 22.5388 16.0297 22.9543 14.9414 22.9543ZM13.3387 20.1446C14.1698 21.035 15.5548 21.0746 16.4452 20.2633C16.8805 19.8676 17.1179 19.3136 17.1377 18.7398C17.1575 18.1462 16.9597 17.5922 16.5441 17.1569C16.1484 16.7216 15.5944 16.4841 15.0206 16.4643C14.427 16.4445 13.873 16.6424 13.4377 17.0579C12.567 17.8692 12.5077 19.2542 13.3387 20.1446Z" fill="#C63432"/>
<path d="M39.2196 46.1658C41.0118 46.1658 42.4646 44.7129 42.4646 42.9208C42.4646 41.1286 41.0118 39.6758 39.2196 39.6758C37.4274 39.6758 35.9746 41.1286 35.9746 42.9208C35.9746 44.7129 37.4274 46.1658 39.2196 46.1658Z" fill="#151514"/>
<path d="M39.2196 47.2336C39.1602 47.2336 39.1207 47.2336 39.0613 47.2336C37.9137 47.194 36.8452 46.6994 36.0735 45.8683C35.2821 45.0373 34.8863 43.9292 34.9259 42.7816C34.9655 41.634 35.4602 40.5656 36.2912 39.7939C37.1222 39.0024 38.2303 38.6067 39.3779 38.6463C40.5255 38.6858 41.594 39.1805 42.3656 40.0115C43.9881 41.7527 43.8892 44.4833 42.148 46.086C41.3565 46.8181 40.3079 47.2336 39.2196 47.2336ZM39.2196 40.7238C38.6854 40.7238 38.1511 40.9217 37.7158 41.3174C37.2805 41.7132 37.0431 42.2672 37.0233 42.841C37.0035 43.4346 37.2014 43.9886 37.6169 44.4239C38.0126 44.8592 38.5666 45.0967 39.1404 45.1164C39.7143 45.1362 40.2881 44.9384 40.7234 44.5229C41.6138 43.6918 41.6533 42.3068 40.8421 41.4164C40.4068 40.9613 39.8132 40.7238 39.2196 40.7238Z" fill="#C63432"/>
<path d="M39.1997 21.7273C40.9919 21.7273 42.4447 20.2744 42.4447 18.4823C42.4447 16.6901 40.9919 15.2373 39.1997 15.2373C37.4075 15.2373 35.9547 16.6901 35.9547 18.4823C35.9547 20.2744 37.4075 21.7273 39.1997 21.7273Z" fill="#151514"/>
<path d="M39.1998 22.7961C39.1405 22.7961 39.1009 22.7961 39.0415 22.7961C37.8939 22.7565 36.8254 22.2619 36.0538 21.4308C35.2623 20.5998 34.8666 19.4918 34.9061 18.3441C34.9457 17.1965 35.4404 16.1281 36.2714 15.3564C37.1024 14.5649 38.2105 14.1692 39.3581 14.2088C40.5057 14.2483 41.5742 14.743 42.3459 15.574C43.1373 16.4249 43.5331 17.5131 43.4935 18.6607C43.4539 19.8083 42.9593 20.8768 42.1282 21.6485C41.317 22.3806 40.2881 22.7961 39.1998 22.7961ZM39.1998 16.2863C38.6656 16.2863 38.1313 16.4842 37.696 16.8799C37.2607 17.2757 37.0233 17.8297 37.0035 18.4035C36.9837 18.9971 37.1816 19.5511 37.5971 19.9864C37.9928 20.4217 38.5469 20.6592 39.1207 20.6789C39.6747 20.6987 40.2683 20.5009 40.7036 20.0853C41.594 19.2543 41.6336 17.8693 40.8223 16.9789C40.387 16.5238 39.7934 16.2863 39.1998 16.2863Z" fill="#C63432"/>
<path d="M14.8425 46.0857C16.6347 46.0857 18.0875 44.6328 18.0875 42.8407C18.0875 41.0485 16.6347 39.5957 14.8425 39.5957C13.0504 39.5957 11.5975 41.0485 11.5975 42.8407C11.5975 44.6328 13.0504 46.0857 14.8425 46.0857Z" fill="#151514"/>
<path d="M14.8426 47.1545C13.695 47.1545 12.5474 46.6994 11.6966 45.7892C10.9051 44.9582 10.5094 43.8501 10.549 42.7025C10.5885 41.5549 11.0832 40.4864 11.9142 39.7148C12.7453 38.9233 13.8533 38.5474 15.0009 38.5671C16.1486 38.6067 17.217 39.1014 17.9887 39.9324C19.6112 41.6736 19.5123 44.3844 17.771 46.0069C16.94 46.7588 15.8913 47.1545 14.8426 47.1545ZM14.8426 40.6447C14.3084 40.6447 13.7742 40.8426 13.3389 41.2383C12.9036 41.6341 12.6661 42.1881 12.6463 42.7619C12.6266 43.3555 12.8244 43.9095 13.2399 44.3448C14.071 45.2352 15.456 45.2748 16.3464 44.4635C17.2368 43.6325 17.2764 42.2474 16.4651 41.357C16.0298 40.8822 15.4362 40.6447 14.8426 40.6447Z" fill="#C63432"/>
</svg>

<svg width="54" height="61" fill="none" xmlns="http://www.w3.org/2000/svg"><path d="M28.04 8.075h-2.097v45.193h2.097V8.075z" fill="#232322"/><path d="M49.588 29.643H4.395v2.097h45.193v-2.097z" fill="#232322"/><path d="M26.991 58.314c-.296 0-.593-.139-.791-.376L3.505 31.463a1.05 1.05 0 010-1.365L26.2 3.624c.396-.475 1.187-.475 1.603 0l22.695 26.474c.336.396-1.682 3.265-2.018 3.66l-20.697 24.18a1.014 1.014 0 01-.792.376zM5.681 30.77l21.31 24.871 21.31-24.871-21.31-24.872L5.681 30.77z" fill="#C63432"/><path d="M40.05 43.631l-1.602-1.365 9.834-11.496-9.913-11.615 1.602-1.365 10.487 12.288c.337.395.337.969 0 1.365L40.051 43.63z" fill="#232322"/><path d="M26.991 7.542a3.245 3.245 0 100-6.49 3.245 3.245 0 000 6.49z" fill="#151514"/><path d="M26.991 8.59h-.158a4.27 4.27 0 01-2.988-1.365 4.262 4.262 0 01-1.147-3.087A4.293 4.293 0 0127.15.003a4.28 4.28 0 014.135 4.452 4.27 4.27 0 01-1.365 2.987 4.23 4.23 0 01-2.93 1.148zm0-6.49c-1.167 0-2.156.93-2.196 2.117a2.14 2.14 0 00.594 1.583c.396.435.95.673 1.523.693a2.173 2.173 0 001.583-.594 2.15 2.15 0 00.693-1.523A2.206 2.206 0 0027.071 2.1h-.08z" fill="#C63432"/><path d="M26.991 59.839a3.245 3.245 0 100-6.49 3.245 3.245 0 000 6.49z" fill="#151514"/><path d="M26.991 60.906h-.158a4.27 4.27 0 01-2.988-1.365 4.262 4.262 0 01-1.147-3.087c.079-2.374 2.097-4.214 4.452-4.135a4.27 4.27 0 012.988 1.365 4.262 4.262 0 011.147 3.087 4.27 4.27 0 01-1.365 2.988 4.322 4.322 0 01-2.929 1.147zm-2.196-4.392a2.205 2.205 0 002.117 2.275 2.173 2.173 0 001.583-.593 2.15 2.15 0 00.693-1.524 2.144 2.144 0 00-.594-1.583 2.15 2.15 0 00-1.523-.692 2.193 2.193 0 00-2.276 2.117z" fill="#C63432"/><path d="M49.687 33.938a3.245 3.245 0 100-6.49 3.245 3.245 0 000 6.49z" fill="#151514"/><path d="M49.687 35.006h-.159a4.27 4.27 0 01-2.987-1.365 4.262 4.262 0 01-1.148-3.087c.08-2.374 2.097-4.215 4.452-4.135a4.27 4.27 0 012.988 1.365 4.262 4.262 0 011.147 3.086 4.27 4.27 0 01-1.365 2.988 4.36 4.36 0 01-2.928 1.148zm0-6.51c-1.168 0-2.157.93-2.197 2.117a2.206 2.206 0 002.117 2.276 2.174 2.174 0 001.583-.594 2.15 2.15 0 00.693-1.524 2.173 2.173 0 00-.594-1.582 2.15 2.15 0 00-1.523-.693h-.08z" fill="#232322"/><path d="M26.991 33.938a3.245 3.245 0 100-6.49 3.245 3.245 0 000 6.49z" fill="#151514"/><path d="M26.991 35.006h-.158a4.27 4.27 0 01-2.988-1.365 4.262 4.262 0 01-1.147-3.087c.079-2.374 2.097-4.215 4.452-4.135a4.27 4.27 0 012.988 1.365 4.262 4.262 0 011.147 3.086 4.27 4.27 0 01-1.365 2.988 4.322 4.322 0 01-2.929 1.148zm0-6.51c-1.167 0-2.156.93-2.196 2.117a2.206 2.206 0 002.117 2.276 2.174 2.174 0 001.583-.594 2.15 2.15 0 00.693-1.524 2.144 2.144 0 00-.594-1.582 2.15 2.15 0 00-1.523-.693h-.08z" fill="#232322"/><path d="M4.296 33.938a3.245 3.245 0 100-6.49 3.245 3.245 0 000 6.49z" fill="#151514"/><path d="M4.296 35.006h-.158A4.27 4.27 0 011.15 33.64a4.262 4.262 0 01-1.147-3.087c.079-2.374 2.117-4.215 4.452-4.135a4.27 4.27 0 012.987 1.365A4.262 4.262 0 018.59 30.87a4.27 4.27 0 01-1.365 2.988 4.323 4.323 0 01-2.929 1.148zm0-6.51c-1.167 0-2.156.93-2.196 2.117a2.206 2.206 0 002.117 2.276 2.174 2.174 0 001.583-.594 2.15 2.15 0 00.693-1.524 2.144 2.144 0 00-.594-1.582 2.15 2.15 0 00-1.523-.693h-.08z" fill="#C63432"/><path d="M14.941 21.887a3.245 3.245 0 100-6.49 3.245 3.245 0 000 6.49z" fill="#151514"/><path d="M14.941 22.954h-.158a4.27 4.27 0 01-2.988-1.365c-1.622-1.741-1.523-4.472.218-6.074.831-.792 1.92-1.188 3.087-1.148a4.27 4.27 0 012.987 1.365c.792.831 1.188 1.94 1.148 3.087a4.27 4.27 0 01-1.365 2.988 4.322 4.322 0 01-2.929 1.147zm-1.602-2.81c.83.891 2.216.93 3.106.12a2.15 2.15 0 00.693-1.524 2.143 2.143 0 00-.594-1.583 2.15 2.15 0 00-1.523-.693 2.144 2.144 0 00-1.583.594 2.186 2.186 0 00-.1 3.087z" fill="#C63432"/><path d="M39.22 46.166a3.245 3.245 0 100-6.49 3.245 3.245 0 000 6.49z" fill="#151514"/><path d="M39.22 47.234h-.159a4.27 4.27 0 01-2.987-1.366c-.792-.83-1.188-1.939-1.148-3.086a4.27 4.27 0 011.365-2.988c.831-.792 1.94-1.187 3.087-1.148a4.27 4.27 0 012.988 1.365c1.622 1.742 1.523 4.472-.218 6.075a4.323 4.323 0 01-2.928 1.148zm0-6.51a2.23 2.23 0 00-1.504.593 2.15 2.15 0 00-.693 1.524 2.14 2.14 0 00.594 1.583c.396.435.95.673 1.523.692a2.173 2.173 0 001.583-.593c.89-.831.93-2.216.12-3.107a2.248 2.248 0 00-1.623-.692z" fill="#C63432"/><path d="M39.2 21.727a3.245 3.245 0 100-6.49 3.245 3.245 0 000 6.49z" fill="#151514"/><path d="M39.2 22.796h-.159a4.27 4.27 0 01-2.987-1.365c-.792-.831-1.187-1.94-1.148-3.087a4.27 4.27 0 011.365-2.988c.831-.791 1.94-1.187 3.087-1.147a4.27 4.27 0 012.988 1.365 4.263 4.263 0 011.148 3.087 4.27 4.27 0 01-1.366 2.987 4.36 4.36 0 01-2.928 1.148zm0-6.51a2.23 2.23 0 00-1.504.594 2.15 2.15 0 00-.692 1.524c-.02.593.178 1.147.593 1.582.396.436.95.673 1.524.693a2.204 2.204 0 001.583-.594c.89-.83.93-2.216.118-3.106a2.248 2.248 0 00-1.622-.693z" fill="#C63432"/><path d="M14.842 46.086a3.245 3.245 0 100-6.49 3.245 3.245 0 000 6.49z" fill="#151514"/><path d="M14.843 47.154a4.29 4.29 0 01-3.146-1.365c-.792-.83-1.188-1.939-1.148-3.087a4.27 4.27 0 011.365-2.987c.831-.792 1.94-1.168 3.087-1.148a4.27 4.27 0 012.988 1.365 4.29 4.29 0 01-.218 6.075 4.375 4.375 0 01-2.928 1.148zm0-6.51c-.535 0-1.069.199-1.504.594a2.15 2.15 0 00-.693 1.524c-.02.593.178 1.148.594 1.583.831.89 2.216.93 3.106.119.89-.831.93-2.217.12-3.107a2.193 2.193 0 00-1.623-.712z" fill="#C63432"/></svg>
